build/documents/DescriptionOutline.svg

<svg xmlns="http://www.w3.org/2000/svg" fill="none" viewBox="0 0 24 24" focusable="false"><path d="M0 0H24V24H0z"/><path fill="#74767B" fill-rule="evenodd" d="M4 6C4 4.34315 5.34315 3 7 3L13.4803 3C14.2425 3 14.9761 3.2901 15.5321 3.81139L19.0518 7.11108C19.6568 7.67823 20 8.47047 20 9.2997L20 18C20 19.6569 18.6569 21 17 21L7 21C5.34315 21 4 19.6569 4 18L4 6ZM7 4.3L13.4803 4.3C13.676 4.3 13.8684 4.33375 14.0496 4.39813L14.0496 7.05252C14.0496 8.12948 14.9226 9.00253 15.9996 9.00252L18.6738 9.00251C18.6911 9.09993 18.7 9.19933 18.7 9.2997L18.7 18C18.7 18.9389 17.9389 19.7 17 19.7L7 19.7C6.06112 19.7 5.3 18.9389 5.3 18L5.3 6C5.3 5.06112 6.06112 4.3 7 4.3ZM17.7819 7.70252L15.3496 5.42216L15.3496 7.05252C15.3496 7.41151 15.6406 7.70252 15.9996 7.70252L17.7819 7.70252ZM11.35 8.99358C11.709 8.99358 12 8.70256 12 8.34358C12 7.98459 11.709 7.69358 11.35 7.69358L8.64583 7.69357C8.28685 7.69357 7.99583 7.98459 7.99583 8.34357C7.99583 8.70256 8.28685 8.99357 8.64583 8.99357L11.35 8.99358ZM15.35 12.5035C15.709 12.5035 16 12.2124 16 11.8535C16 11.4945 15.709 11.2035 15.35 11.2035L8.64583 11.2035C8.28685 11.2035 7.99583 11.4945 7.99583 11.8535C7.99583 12.2124 8.28685 12.5035 8.64583 12.5035L15.35 12.5035ZM15.35 16.0134C15.709 16.0134 16 15.7224 16 15.3634C16 15.0044 15.709 14.7134 15.35 14.7134L8.64583 14.7134C8.28685 14.7134 7.99583 15.0044 7.99583 15.3634C7.99583 15.7224 8.28685 16.0134 8.64583 16.0134L15.35 16.0134Z"/></svg>

<svg xmlns="http://www.w3.org/2000/svg" fill="none" viewBox="0 0 24 24" focusable="false"><path fill="#74767B" fill-rule="evenodd" d="M4 6c0-1.66 1.34-3 3-3h6.48c.76 0 1.49.29 2.05.81l3.52 3.3c.6.56.95 1.36.95 2.18V18c0 1.65-1.35 3-3 3H7c-1.66 0-3-1.35-3-3zm3-1.71h6.48c.19 0 .38.04.56.1v2.66c0 1.07.88 1.95 1.95 1.95h2.68c.02.09.03.19.03.29V18c0 .93-.77 1.7-1.7 1.7H7c-.94 0-1.7-.77-1.7-1.7V6c0-.94.76-1.71 1.7-1.71M17.78 7.7l-2.44-2.28v1.63c0 .36.3.65.65.65zm-6.43 1.29c.35 0 .65-.29.65-.65s-.3-.65-.65-.65H8.64c-.36 0-.65.29-.65.65s.29.65.65.65zM16 11.85c0 .36-.3.65-.65.65H8.64c-.36 0-.65-.29-.65-.65s.29-.65.65-.65h6.71c.35 0 .65.29.65.65m-.65 4.16c.35 0 .65-.29.65-.65s-.3-.65-.65-.65H8.64c-.36 0-.65.29-.65.65s.29.65.65.65z"/></svg>
